X:3
T:The Fairies Hornpipe
M:4/4
R:Hornpipe
S:phelan-1/08
L:1/8
K:G
BAG2 GABG | cBAG ABG2 | Bcdg fged | cBce dBA2  |
Bcdg gfg2 | fede dcB2 | AGAB cAdc | AFG2 GFG2 ||
Bcdg gfg2 | fede dcB2 | AGAB cAed | cBA2 d2d2  |
Bcdg gfg2 | fede dcB2 | AGAB cAdc | AFG2 GFG2  |]

